X: 2
T: The Imperial Quick Step
R: march
M: 4/4
L: 1/8
K: Dmaj
dd f>d|ee g>e|dd f>d|e/d/c/B/ A/G/F/E/|
dd f>d|ee g>e|fe/d/ c/d/e/c/|d2 d:|
ff a>f|af fd|ee ge|ge d/c/B/A/|
ff a>f|af fd|e/f/g/e/ d/c/B/A/|dd/e/ d:|
dd/e/ cc/d/|BB/d/ A2|BB cc|d/f/a/b/ a/g/f/e/|
df/d/ ce/c/|Be/B/ AA|BB c/d/e/c/|d2 d:|
af f>a|ge e>g|fd d>f|e/d/c/B/ Af/g/|
af f/g/a/b/|ge e>g|fd c/d/e/c/|d2 d:|

